Sweet-Rainbow/icons/accessories-calculator.svg

<?xml version="1.0" encoding="UTF-8" standalone="no"?>
<!-- Generator: Gravit.io -->

<svg
   xmlns:dc="http://purl.org/dc/elements/1.1/"
   xmlns:cc="http://creativecommons.org/ns#"
   xmlns:rdf="http://www.w3.org/1999/02/22-rdf-syntax-ns#"
   xmlns:svg="http://www.w3.org/2000/svg"
   xmlns="http://www.w3.org/2000/svg"
   xmlns:sodipodi="http://sodipodi.sourceforge.net/DTD/sodipodi-0.dtd"
   xmlns:inkscape="http://www.inkscape.org/namespaces/inkscape"
   style="isolation:isolate"
   viewBox="0 0 48 48"
   width="48"
   height="48"
   version="1.1"
   id="svg46"
   sodipodi:docname="accessories-calculator.svg"
   inkscape:version="0.92.4 (5da689c313, 2019-01-14)">
  <metadata
     id="metadata52">
    <rdf:RDF>
      <cc:Work
         rdf:about="">
        <dc:format>image/svg+xml</dc:format>
        <dc:type
           rdf:resource="http://purl.org/dc/dcmitype/StillImage" />
        <dc:title></dc:title>
      </cc:Work>
    </rdf:RDF>
  </metadata>
  <defs
     id="defs50" />
  <sodipodi:namedview
     pagecolor="#ffffff"
     bordercolor="#666666"
     borderopacity="1"
     objecttolerance="10"
     gridtolerance="10"
     guidetolerance="10"
     inkscape:pageopacity="0"
     inkscape:pageshadow="2"
     inkscape:window-width="640"
     inkscape:window-height="480"
     id="namedview48"
     showgrid="false"
     inkscape:zoom="39.153656"
     inkscape:cx="18.994082"
     inkscape:cy="24"
     inkscape:current-layer="svg46" />
  <linearGradient
     id="_lgradient_0"
     x1="-0.014458464"
     y1="0.009839246"
     x2="1.0164566"
     y2="1.072293"
     gradientTransform="matrix(44,0,0,44,2,2)"
     gradientUnits="userSpaceOnUse">
    <stop
       offset="0%"
       stop-opacity="1"
       style="stop-color:rgb(249,212,35)"
       id="stop2" />
    <stop
       offset="51.56237565086822%"
       stop-opacity="1"
       style="stop-color:rgb(255,78,80)"
       id="stop4" />
    <stop
       offset="99.1304347826087%"
       stop-opacity="1"
       style="stop-color:rgb(138,35,135)"
       id="stop6" />
  </linearGradient>
  <linearGradient
     id="_lgradient_1"
     x1="0"
     y1="0.5"
     x2="0.90748805"
     y2="0.92007786"
     gradientTransform="matrix(12.122,0,0,12.134,9.074,9.562)"
     gradientUnits="userSpaceOnUse">
    <stop
       offset="0%"
       stop-opacity="1"
       style="stop-color:rgb(0,255,216)"
       id="stop11" />
    <stop
       offset="83.88839793817618%"
       stop-opacity="1"
       style="stop-color:rgb(0,255,184)"
       id="stop13" />
  </linearGradient>
  <linearGradient
     id="_lgradient_2"
     x1="0"
     y1="0.5"
     x2="0.90748805"
     y2="0.92007786"
     gradientTransform="matrix(11.555,0,0,3.052,9.108,33.312)"
     gradientUnits="userSpaceOnUse">
    <stop
       offset="0%"
       stop-opacity="1"
       style="stop-color:rgb(0,255,216)"
       id="stop18" />
    <stop
       offset="83.88839793817618%"
       stop-opacity="1"
       style="stop-color:rgb(0,255,184)"
       id="stop20" />
  </linearGradient>
  <linearGradient
     id="_lgradient_3"
     x1="0"
     y1="0.5"
     x2="1"
     y2="0.5"
     gradientTransform="matrix(11.555,0,0,3.052,27.108,33.312)"
     gradientUnits="userSpaceOnUse">
    <stop
       offset="0%"
       stop-opacity="1"
       style="stop-color:rgb(241,39,17)"
       id="stop25" />
    <stop
       offset="99.1304347826087%"
       stop-opacity="1"
       style="stop-color:rgb(245,175,25)"
       id="stop27" />
  </linearGradient>
  <linearGradient
     id="_lgradient_4"
     x1="0"
     y1="0.5"
     x2="1"
     y2="0.5"
     gradientTransform="matrix(11.555,0,0,3.052,27.108,29.312)"
     gradientUnits="userSpaceOnUse">
    <stop
       offset="0%"
       stop-opacity="1"
       style="stop-color:rgb(241,39,17)"
       id="stop32" />
    <stop
       offset="99.1304347826087%"
       stop-opacity="1"
       style="stop-color:rgb(245,175,25)"
       id="stop34" />
  </linearGradient>
  <linearGradient
     id="_lgradient_5"
     x1="-3.8208334e-05"
     y1="0.50000006"
     x2="0.99996185"
     y2="0.50000006"
     gradientTransform="matrix(9.62,0,0,10.08,28.52,10.26)"
     gradientUnits="userSpaceOnUse">
    <stop
       offset="0%"
       stop-opacity="1"
       style="stop-color:rgb(211,0,220)"
       id="stop39" />
    <stop
       offset="100%"
       stop-opacity="1"
       style="stop-color:rgb(135,0,255)"
       id="stop41" />
  </linearGradient>
  <g
     id="g868"
     transform="matrix(1.0909091,0,0,1.0909091,-2.1818184,-2.1818184)">
    <path
       id="path9"
       d="m 6,18.36 v 0 c 0,1.104 -0.896,2 -2,2 v 0 c -1.104,0 -2,-0.896 -2,-2 v 0 V 7 C 2,4.24 4.24,2 7,2 h 11.36 v 0 c 1.104,0 2,0.896 2,2 v 0 c 0,1.104 -0.896,2 -2,2 V 6 H 9 C 7.344,6 6,7.344 6,9 Z M 29.64,6 v 0 c -1.104,0 -2,-0.896 -2,-2 v 0 c 0,-1.104 0.896,-2 2,-2 V 2 H 41 c 2.76,0 5,2.24 5,5 v 11.36 0 c 0,1.104 -0.896,2 -2,2 v 0 c -1.104,0 -2,-0.896 -2,-2 v 0 V 9 C 42,7.344 40.656,6 39,6 Z M 42,29.64 v 0 c 0,-1.104 0.896,-2 2,-2 v 0 c 1.104,0 2,0.896 2,2 v 0 V 41 c 0,2.76 -2.24,5 -5,5 H 30 v 0 c -1.104,0 -2,-0.896 -2,-2 v 0 c 0,-1.104 0.896,-2 2,-2 v 0 h 9 c 1.656,0 3,-1.344 3,-3 z M 18.36,42 v 0 c 1.104,0 2,0.896 2,2 v 0 c 0,1.104 -0.896,2 -2,2 v 0 H 7 C 4.24,46 2,43.76 2,41 v -11.36 0 c 0,-1.104 0.896,-2 2,-2 v 0 c 1.104,0 2,0.896 2,2 v 0 9.36 c 0,1.656 1.344,3 3,3 z"
       inkscape:connector-curvature="0"
       style="fill:url(#_lgradient_0);fill-rule:evenodd" />
    <path
       id="path16"
       d="m 13.798,20.696 v -3.7 h -3.724 c -0.552,0 -1,-0.448 -1,-1 v -0.673 c 0,-0.552 0.448,-1 1,-1 h 3.724 v -3.761 c 0,-0.552 0.448,-1 1,-1 h 0.674 c 0.552,0 1,0.448 1,1 v 3.761 h 3.724 c 0.552,0 1,0.448 1,1 v 0.673 c 0,0.552 -0.448,1 -1,1 h -3.724 v 3.7 c 0,0.552 -0.448,1 -1,1 h -0.674 c -0.552,0 -1,-0.448 -1,-1 z"
       inkscape:connector-curvature="0"
       style="fill:url(#_lgradient_1)" />
    <path
       id="path23"
       d="m 19.663,36.364 h -9.555 c -0.552,0 -1,-0.448 -1,-1 v -1.052 c 0,-0.552 0.448,-1 1,-1 h 9.555 c 0.552,0 1,0.448 1,1 v 1.052 c 0,0.552 -0.448,1 -1,1 z"
       inkscape:connector-curvature="0"
       style="fill:url(#_lgradient_2)" />
    <path
       id="path30"
       d="m 37.663,36.364 h -9.555 c -0.552,0 -1,-0.448 -1,-1 v -1.052 c 0,-0.552 0.448,-1 1,-1 h 9.555 c 0.552,0 1,0.448 1,1 v 1.052 c 0,0.552 -0.448,1 -1,1 z"
       inkscape:connector-curvature="0"
       style="fill:url(#_lgradient_3)" />
    <path
       id="path37"
       d="m 37.663,32.364 h -9.555 c -0.552,0 -1,-0.448 -1,-1 v -1.052 c 0,-0.552 0.448,-1 1,-1 h 9.555 c 0.552,0 1,0.448 1,1 v 1.052 c 0,0.552 -0.448,1 -1,1 z"
       inkscape:connector-curvature="0"
       style="fill:url(#_lgradient_4)" />
    <path
       id="path44"
       d="m 37.78,18.38 v 0 q 0.36,0.36 0.36,0.82 v 0 0 q 0,0.44 -0.34,0.79 v 0 0 q -0.34,0.35 -0.8,0.35 v 0 0 q -0.5,0 -0.86,-0.42 v 0 L 33.32,16.8 30.5,19.92 v 0 q -0.38,0.4 -0.86,0.4 v 0 0 q -0.44,0 -0.78,-0.34 v 0 0 Q 28.52,19.64 28.52,19.2 v 0 0 q 0,-0.46 0.36,-0.82 v 0 l 2.92,-3.18 -2.76,-3 v 0 q -0.36,-0.36 -0.36,-0.82 v 0 0 q 0,-0.46 0.34,-0.79 v 0 0 q 0.34,-0.33 0.78,-0.33 v 0 0 q 0.48,0 0.86,0.4 v 0 l 2.66,2.92 2.66,-2.92 v 0 q 0.38,-0.4 0.86,-0.4 v 0 0 q 0.46,0 0.79,0.33 v 0 0 q 0.33,0.33 0.33,0.79 v 0 0 q 0,0.46 -0.36,0.82 v 0 l -2.76,3 z"
       inkscape:connector-curvature="0"
       style="fill:url(#_lgradient_5)" />
  </g>
</svg>

<?xml version="1.0" standalone="no"?><!-- Generator: Gravit.io --><svg xmlns="http://www.w3.org/2000/svg" xmlns:xlink="http://www.w3.org/1999/xlink" style="isolation:isolate" viewBox="0 0 48 48" width="48px" height="48px"><linearGradient id="_lgradient_0" x1="-0.014458464773922156" y1="0.009839246119734024" x2="1.0164565923220248" y2="1.0722930524759795" gradientTransform="matrix(44,0,0,44,2,2)" gradientUnits="userSpaceOnUse"><stop offset="0%" stop-opacity="1" style="stop-color:rgb(249,212,35)"/><stop offset="51.56237565086822%" stop-opacity="1" style="stop-color:rgb(255,78,80)"/><stop offset="99.1304347826087%" stop-opacity="1" style="stop-color:rgb(138,35,135)"/></linearGradient><path d=" M 6 18.36 L 6 18.36 C 6 19.464 5.104 20.36 4 20.36 L 4 20.36 C 2.896 20.36 2 19.464 2 18.36 L 2 18.36 L 2 7 C 2 4.24 4.24 2 7 2 L 18.36 2 L 18.36 2 C 19.464 2 20.36 2.896 20.36 4 L 20.36 4 C 20.36 5.104 19.464 6 18.36 6 L 18.36 6 L 9 6 C 7.344 6 6 7.344 6 9 L 6 18.36 L 6 18.36 L 6 18.36 Z  M 29.64 6 L 29.64 6 C 28.536 6 27.64 5.104 27.64 4 L 27.64 4 C 27.64 2.896 28.536 2 29.64 2 L 29.64 2 L 41 2 C 43.76 2 46 4.24 46 7 L 46 18.36 L 46 18.36 C 46 19.464 45.104 20.36 44 20.36 L 44 20.36 C 42.896 20.36 42 19.464 42 18.36 L 42 18.36 L 42 9 C 42 7.344 40.656 6 39 6 L 29.64 6 L 29.64 6 L 29.64 6 Z  M 42 29.64 L 42 29.64 C 42 28.536 42.896 27.64 44 27.64 L 44 27.64 C 45.104 27.64 46 28.536 46 29.64 L 46 29.64 L 46 41 C 46 43.76 43.76 46 41 46 L 30 46 L 30 46 C 28.896 46 28 45.104 28 44 L 28 44 C 28 42.896 28.896 42 30 42 L 30 42 L 39 42 C 40.656 42 42 40.656 42 39 L 42 29.64 L 42 29.64 Z  M 18.36 42 L 18.36 42 C 19.464 42 20.36 42.896 20.36 44 L 20.36 44 C 20.36 45.104 19.464 46 18.36 46 L 18.36 46 L 7 46 C 4.24 46 2 43.76 2 41 L 2 29.64 L 2 29.64 C 2 28.536 2.896 27.64 4 27.64 L 4 27.64 C 5.104 27.64 6 28.536 6 29.64 L 6 29.64 L 6 39 C 6 40.656 7.344 42 9 42 L 18.36 42 Z " fill-rule="evenodd" fill="url(#_lgradient_0)"/><linearGradient id="_lgradient_1" x1="0" y1="0.5" x2="0.9074880558539661" y2="0.9200778838291643" gradientTransform="matrix(12.122,0,0,12.134,9.074,9.562)" gradientUnits="userSpaceOnUse"><stop offset="0%" stop-opacity="1" style="stop-color:rgb(0,255,216)"/><stop offset="83.88839793817618%" stop-opacity="1" style="stop-color:rgb(0,255,184)"/></linearGradient><path d=" M 13.798 20.696 L 13.798 16.996 L 10.074 16.996 C 9.522 16.996 9.074 16.548 9.074 15.996 L 9.074 15.323 C 9.074 14.771 9.522 14.323 10.074 14.323 L 13.798 14.323 L 13.798 10.562 C 13.798 10.01 14.246 9.562 14.798 9.562 L 15.472 9.562 C 16.024 9.562 16.472 10.01 16.472 10.562 L 16.472 14.323 L 20.196 14.323 C 20.748 14.323 21.196 14.771 21.196 15.323 L 21.196 15.996 C 21.196 16.548 20.748 16.996 20.196 16.996 L 16.472 16.996 L 16.472 20.696 C 16.472 21.248 16.024 21.696 15.472 21.696 L 14.798 21.696 C 14.246 21.696 13.798 21.248 13.798 20.696 Z " fill="url(#_lgradient_1)"/><linearGradient id="_lgradient_2" x1="0" y1="0.5" x2="0.9074880558539661" y2="0.9200778838291643" gradientTransform="matrix(11.555,0,0,3.052,9.108,33.312)" gradientUnits="userSpaceOnUse"><stop offset="0%" stop-opacity="1" style="stop-color:rgb(0,255,216)"/><stop offset="83.88839793817618%" stop-opacity="1" style="stop-color:rgb(0,255,184)"/></linearGradient><path d=" M 19.663 36.364 L 10.108 36.364 C 9.556 36.364 9.108 35.916 9.108 35.364 L 9.108 34.312 C 9.108 33.76 9.556 33.312 10.108 33.312 L 19.663 33.312 C 20.215 33.312 20.663 33.76 20.663 34.312 L 20.663 35.364 C 20.663 35.916 20.215 36.364 19.663 36.364 Z " fill="url(#_lgradient_2)"/><linearGradient id="_lgradient_3" x1="0" y1="0.5" x2="1" y2="0.5" gradientTransform="matrix(11.555,0,0,3.052,27.108,33.312)" gradientUnits="userSpaceOnUse"><stop offset="0%" stop-opacity="1" style="stop-color:rgb(241,39,17)"/><stop offset="99.1304347826087%" stop-opacity="1" style="stop-color:rgb(245,175,25)"/></linearGradient><path d=" M 37.663 36.364 L 28.108 36.364 C 27.556 36.364 27.108 35.916 27.108 35.364 L 27.108 34.312 C 27.108 33.76 27.556 33.312 28.108 33.312 L 37.663 33.312 C 38.215 33.312 38.663 33.76 38.663 34.312 L 38.663 35.364 C 38.663 35.916 38.215 36.364 37.663 36.364 Z " fill="url(#_lgradient_3)"/><linearGradient id="_lgradient_4" x1="0" y1="0.5" x2="1" y2="0.5" gradientTransform="matrix(11.555,0,0,3.052,27.108,29.312)" gradientUnits="userSpaceOnUse"><stop offset="0%" stop-opacity="1" style="stop-color:rgb(241,39,17)"/><stop offset="99.1304347826087%" stop-opacity="1" style="stop-color:rgb(245,175,25)"/></linearGradient><path d=" M 37.663 32.364 L 28.108 32.364 C 27.556 32.364 27.108 31.916 27.108 31.364 L 27.108 30.312 C 27.108 29.76 27.556 29.312 28.108 29.312 L 37.663 29.312 C 38.215 29.312 38.663 29.76 38.663 30.312 L 38.663 31.364 C 38.663 31.916 38.215 32.364 37.663 32.364 Z " fill="url(#_lgradient_4)"/><linearGradient id="_lgradient_5" x1="-0.000038208333333289435" y1="0.5000000833333331" x2="0.9999618333333335" y2="0.5000000833333331" gradientTransform="matrix(9.62,0,0,10.08,28.52,10.26)" gradientUnits="userSpaceOnUse"><stop offset="0%" stop-opacity="1" style="stop-color:rgb(211,0,220)"/><stop offset="100%" stop-opacity="1" style="stop-color:rgb(135,0,255)"/></linearGradient><path d=" M 37.78 18.38 L 37.78 18.38 Q 38.14 18.74 38.14 19.2 L 38.14 19.2 L 38.14 19.2 Q 38.14 19.64 37.8 19.99 L 37.8 19.99 L 37.8 19.99 Q 37.46 20.34 37 20.34 L 37 20.34 L 37 20.34 Q 36.5 20.34 36.14 19.92 L 36.14 19.92 L 33.32 16.8 L 30.5 19.92 L 30.5 19.92 Q 30.12 20.32 29.64 20.32 L 29.64 20.32 L 29.64 20.32 Q 29.2 20.32 28.86 19.98 L 28.86 19.98 L 28.86 19.98 Q 28.52 19.64 28.52 19.2 L 28.52 19.2 L 28.52 19.2 Q 28.52 18.74 28.88 18.38 L 28.88 18.38 L 31.8 15.2 L 29.04 12.2 L 29.04 12.2 Q 28.68 11.84 28.68 11.38 L 28.68 11.38 L 28.68 11.38 Q 28.68 10.92 29.02 10.59 L 29.02 10.59 L 29.02 10.59 Q 29.36 10.26 29.8 10.26 L 29.8 10.26 L 29.8 10.26 Q 30.28 10.26 30.66 10.66 L 30.66 10.66 L 33.32 13.58 L 35.98 10.66 L 35.98 10.66 Q 36.36 10.26 36.84 10.26 L 36.84 10.26 L 36.84 10.26 Q 37.3 10.26 37.63 10.59 L 37.63 10.59 L 37.63 10.59 Q 37.96 10.92 37.96 11.38 L 37.96 11.38 L 37.96 11.38 Q 37.96 11.84 37.6 12.2 L 37.6 12.2 L 34.84 15.2 L 37.78 18.38 Z " fill="url(#_lgradient_5)"/></svg>
